src/assets/icons/file.svg

<svg width="24" height="24" viewBox="0 0 24 24" fill="none" xmlns="http://www.w3.org/2000/svg">
<!-- Document body -->
<path d="M18.25 17.75V7.75C18.25 6.64543 17.3546 5.75 16.25 5.75H11.1677C10.2046 5.75 7.25 9.17857 7.25 10.1451V17.75C7.25 18.8546 8.14543 19.75 9.25 19.75H16.25C17.3546 19.75 18.25 18.8546 18.25 17.75Z" stroke="#314158" stroke-width="1.5"/>
<!-- Fold corner -->
<path d="M11.2273 5.75V10.4773H6.5" stroke="#314158" stroke-width="1.5" stroke-linejoin="round"/>
</svg>

<svg fill="none" viewBox="0 0 24 24"><path stroke="currentColor" stroke-width="1.5" d="M18.25 17.75v-10a2 2 0 0 0-2-2h-5.082c-.963 0-3.918 3.429-3.918 4.395v7.605a2 2 0 0 0 2 2h7a2 2 0 0 0 2-2Z"/><path stroke="currentColor" stroke-linejoin="round" stroke-width="1.5" d="M11.227 5.75v4.727H6.5"/></svg>
